contributed-vectors/gcash.svg

<svg xmlns="http://www.w3.org/2000/svg" xml:space="preserve" style="fill-rule:evenodd;clip-rule:evenodd;stroke-linejoin:round;stroke-miterlimit:2" viewBox="0 0 192 192"><path d="M164.5 21.5c0-5.519-4.481-10-10-10h-133c-5.519 0-10 4.481-10 10v133c0 5.519 4.481 10 10 10h133c5.519 0 10-4.481 10-10v-133Z" style="fill:#9abeff" transform="translate(8 8)"/><path d="M112.961 69.223a5.677 5.677 0 0 0-.652-8.593 44.123 44.123 0 0 0-26.125-8.58c-24.257 0-43.951 19.693-43.951 43.95s19.694 43.95 43.951 43.95a43.95 43.95 0 0 0 26.117-8.601 5.653 5.653 0 0 0 .649-8.553c.014-.016.013-.016.013-.017a5.298 5.298 0 0 0-6.932-.485 32.823 32.823 0 0 1-19.847 6.669c-18.193 0-32.963-14.77-32.963-32.963s14.77-32.963 32.963-32.963a32.964 32.964 0 0 1 19.861 6.656 5.274 5.274 0 0 0 6.901-.483l.015.013Z" style="fill:#728dbe" transform="translate(17.43 16.01) scale(.83322)"/><path d="M54.785 74.821a5.719 5.719 0 0 0-8.319 2.197C43.713 82.942 42.233 89.415 42.233 96a43.953 43.953 0 0 0 4.299 18.957 5.646 5.646 0 0 0 8.21 2.167c.039.057.04.057.041.056a5.353 5.353 0 0 0 1.788-6.843c-2.215-4.432-3.35-9.341-3.35-14.337 0-4.997 1.136-9.908 3.297-14.37a5.283 5.283 0 0 0-1.765-6.755c.034-.052.033-.053.032-.054Z" style="fill:#fff" transform="matrix(-.83322 0 0 .83322 161.051 16.01)"/><path d="M133.121 126.394a5.584 5.584 0 0 0 8-1.915A60.752 60.752 0 0 0 148.235 96a60.17 60.17 0 0 0-7.151-28.452 5.544 5.544 0 0 0-7.942-1.902l-.025-.037a5.305 5.305 0 0 0-1.664 6.984A48.843 48.843 0 0 1 137.404 96a49.342 49.342 0 0 1-5.915 23.424 5.267 5.267 0 0 0 1.653 6.934c-.022.035-.021.035-.021.036ZM115.372 96.968c-.511 14.849-12.708 26.728-27.68 26.728-15.286 0-27.697-12.41-27.697-27.696 0-15.286 12.411-27.696 27.697-27.696 5.046 0 9.949 1.376 14.21 3.92a5.418 5.418 0 0 1 2.614 3.987 5.418 5.418 0 0 1-1.546 4.51l-.003-.001a5.367 5.367 0 0 1-6.55.812 16.896 16.896 0 0 0-8.725-2.427c-9.325 0-16.895 7.57-16.895 16.895s7.57 16.895 16.895 16.895c7.348 0 13.6-4.691 15.926-11.242h-11.49a5.452 5.452 0 0 1-5.45-5.45V96.2a5.45 5.45 0 0 1 5.45-5.45h17.76a5.501 5.501 0 0 1 5.495 5.25h.005v.554c0 .14-.005.278-.016.414Z" style="fill:#fff" transform="translate(15.867 16.01) scale(.83322)"/></svg>

<?xml version="1.0" encoding="UTF-8" standalone="no"?>
<!DOCTYPE svg PUBLIC "-//W3C//DTD SVG 1.1//EN" "http://www.w3.org/Graphics/SVG/1.1/DTD/svg11.dtd">
<svg width="100%" height="100%" viewBox="0 0 192 192" version="1.1" xmlns="http://www.w3.org/2000/svg" xmlns:xlink="http://www.w3.org/1999/xlink" xml:space="preserve" xmlns:serif="http://www.serif.com/" style="fill-rule:evenodd;clip-rule:evenodd;stroke-linejoin:round;stroke-miterlimit:2;">
    <g id="Layer1">
        <g transform="matrix(1,0,0,1,8,8)">
            <path d="M164.5,21.5C164.5,15.981 160.019,11.5 154.5,11.5L21.5,11.5C15.981,11.5 11.5,15.981 11.5,21.5L11.5,154.5C11.5,160.019 15.981,164.5 21.5,164.5L154.5,164.5C160.019,164.5 164.5,160.019 164.5,154.5L164.5,21.5Z" style="fill:rgb(154,190,255);"/>
        </g>
        <g transform="matrix(0.833222,0,0,0.833222,15.8666,16.0107)">
            <g transform="matrix(1,0,0,1,1.87733,0)">
                <path d="M112.961,69.223C114.132,68.052 114.734,66.428 114.608,64.777C114.483,63.125 113.643,61.611 112.309,60.63C104.781,55.097 95.639,52.05 86.184,52.05C61.927,52.05 42.233,71.743 42.233,96C42.233,120.257 61.927,139.95 86.184,139.95C95.642,139.95 104.785,136.902 112.301,131.349C113.629,130.372 114.465,128.865 114.59,127.221C114.714,125.577 114.116,123.961 112.95,122.796C112.964,122.78 112.963,122.78 112.963,122.779C111.096,120.913 108.14,120.706 106.031,122.294C100.355,126.602 93.391,128.963 86.184,128.963C67.991,128.963 53.221,114.193 53.221,96C53.221,77.807 67.991,63.037 86.184,63.037C93.392,63.037 100.358,65.399 106.045,69.693C108.144,71.274 111.088,71.068 112.946,69.21C112.96,69.223 112.96,69.223 112.961,69.223Z" style="fill:rgb(114,141,190);"/>
            </g>
            <g>
                <g transform="matrix(-1,0,0,1,174.245,0)">
                    <path d="M54.785,74.821C53.419,73.9 51.721,73.612 50.128,74.033C48.534,74.454 47.199,75.542 46.466,77.018C43.713,82.942 42.233,89.415 42.233,96C42.233,102.588 43.714,109.062 46.532,114.957C47.256,116.413 48.573,117.487 50.145,117.902C51.718,118.317 53.394,118.034 54.742,117.124C54.781,117.181 54.782,117.181 54.783,117.18C57.016,115.674 57.781,112.743 56.571,110.337C54.356,105.905 53.221,100.996 53.221,96C53.221,91.003 54.357,86.092 56.518,81.63C57.713,79.255 56.958,76.362 54.753,74.875C54.787,74.823 54.786,74.822 54.785,74.821Z" style="fill:white;"/>
                </g>
                <path d="M133.121,126.394C134.418,127.268 136.021,127.559 137.542,127.195C139.063,126.831 140.361,125.846 141.121,124.479C145.763,115.735 148.235,105.962 148.235,96C148.235,86.04 145.764,76.269 141.084,67.548C140.329,66.191 139.041,65.213 137.531,64.851C136.021,64.49 134.429,64.778 133.142,65.646C133.117,65.609 133.117,65.609 133.117,65.609C130.832,67.151 130.109,70.187 131.453,72.593C135.359,79.749 137.404,87.797 137.404,96C137.404,104.203 135.359,112.249 131.489,119.424C130.155,121.814 130.873,124.827 133.142,126.358C133.12,126.393 133.121,126.393 133.121,126.394Z" style="fill:white;"/>
            </g>
            <path d="M115.372,96.968C114.861,111.817 102.664,123.696 87.692,123.696C72.406,123.696 59.995,111.286 59.995,96C59.995,80.714 72.406,68.304 87.692,68.304C92.738,68.304 97.641,69.68 101.902,72.224C103.343,73.078 104.308,74.55 104.516,76.211C104.725,77.873 104.155,79.537 102.97,80.721C102.97,80.722 102.97,80.722 102.967,80.72C101.228,82.46 98.529,82.794 96.417,81.532C93.805,79.957 90.792,79.105 87.692,79.105C78.367,79.105 70.797,86.675 70.797,96C70.797,105.325 78.367,112.895 87.692,112.895C95.04,112.895 101.292,108.204 103.618,101.653L92.128,101.653C90.683,101.653 89.296,101.078 88.274,100.056C87.252,99.034 86.678,97.648 86.678,96.203C86.678,96.202 86.678,96.201 86.678,96.2C86.678,94.754 87.252,93.368 88.274,92.346C89.296,91.324 90.683,90.75 92.128,90.75C97.219,90.75 104.781,90.75 109.888,90.75C112.842,90.75 115.252,93.079 115.383,96L115.388,96L115.388,96.554C115.388,96.694 115.383,96.832 115.372,96.968Z" style="fill:white;"/>
        </g>
    </g>
</svg>
